icon-themes/sifr_svg/cmd/lc_mergedialog.svg

<svg viewBox="0 0 24 24" xmlns="http://www.w3.org/2000/svg"><path d="m3 2v17h3v3h4v-2h-2v-13h11v4h2v-6h-3v-3zm2 2h11v1h-10v12h-1zm10 7v1.503906c.628416.471311.998772 1.210576 1 1.996094 0 1.380712-1.119288 2.5-2.5 2.5-.786206-.000614-1.526324-.371035-1.998047-1h-1.501953v1.857422c1.371429 1.321851 2.804414 1.714844 4.115234 1.714844h2.742188l3.427734 3.427734h1.714844v-1.714844l-3.427734-3.427734v-2.742188c0-1.511964-.368607-2.743805-1.714844-4.115234z" fill="#555753"/></svg>

<svg xmlns="http://www.w3.org/2000/svg" viewBox="0 0 24 24">
  <path
     style="fill:#555753"
     d="M 3 2 L 3 19 L 6 19 L 6 22 L 10 22 L 10 20 L 8 20 L 8 7 L 19 7 L 19 11 L 21 11 L 21 5 L 18 5 L 18 2 L 3 2 z M 5 4 L 16 4 L 16 5 L 6 5 L 6 17 L 5 17 L 5 4 z M 15 11 L 15 12.503906 C 15.628416 12.975217 15.998772 13.714482 16 14.5 C 16 15.880712 14.880712 17 13.5 17 C 12.713794 16.999386 11.973676 16.628965 11.501953 16 L 10 16 L 10 17.857422 C 11.371429 19.179273 12.804414 19.572266 14.115234 19.572266 L 16.857422 19.572266 L 20.285156 23 L 22 23 L 22 21.285156 L 18.572266 17.857422 L 18.572266 15.115234 C 18.572266 13.60327 18.203659 12.371429 16.857422 11 L 15 11 z "
     />
</svg>
